X: 34625
T: Road To Ballinakill, The
R: jig
M: 6/8
K: Gmajor
|:A|BAB GBd|ede Gce|dBd dBG|FAF DFA|
BAB GBd|ede Gce|dBG DFA|BGF G2:|
|:A|B2d gdB|c2e gec|B2d gdB|Agf edc|
B2d gdB|c2e gec|BdB cAF|AGF G2:|

